X: 655
T: Dui hua
L: 1/8
M: 4/4
K: G
d e d A d e d d [I:setbarnb 1]| 
A> A A> cd3e | 
c2c d A B A G | 
F2G AD4 | 
A> B A GF4 | 
A> F G AD4 | 
A> B A GF4 | 
A> F G AD4 | 
d e d A d e d d | 
A> A A B2<d2e | 
c2c> d A B A G | 
F F G AD4 |]

@@@ Tune index: 9529
